X: 10975
T: Drunken Acrobat, The
R: reel
M: 4/4
K: Dmajor
|:Adef afed|AB2A B2 ed|Adef afed|abba ba f2|
Adef afed|AB2A B2 dB|ABdB debb|afef d3z:|
~d3 e B2 af|e2fe edBd|AB2A Bd2B|efed efab|
~d2 de B2 af|e2fe edBd|ABdB deB2|afef d3z:|

